X:365
T:John Brosnan's
M:C|
L:1/8
Q:200
S:THSP
R:reel
K:Bm
"Bm"FB (3BdB FBde|f2ef dcBA|"A"FA (3ABA FAEA|FA (3ABA eAcA|
"Bm"FB (3BdB FBde|f2ef dcBA|f2ef dfcf
|1 "A"FBBA "Bm"BcBA:|2 "A"FBBA "Bm"Bcde||:
"Bm"fB (3BdB FBde|f2bf afe2|fB (3BdB FBdf|"A"e2ce Aece|
fB (3BdB FBde|"Bm"f2bf afe2|f2ef dfcf
|1 "A"FBBA "Bm"Bcde:|2 "A"FBBA "Bm"BcBA|]
